src/assets/icons/sax/IconNote.svg

<svg xmlns="http://www.w3.org/2000/svg" width="20" height="20" fill="none" viewBox="0 0 24 24">
  <path stroke="currentcolor" stroke-linecap="round" stroke-linejoin="round" stroke-width="1.5" d="M20 8.25V18c0 3-1.79 4-4 4H8c-2.21 0-4-1-4-4V8.25c0-3.25 1.79-4 4-4a2.24 2.24 0 0 0 2.25 2.25h3.5A2.25 2.25 0 0 0 16 4.25c2.21 0 4 .75 4 4"/>
  <path stroke="currentcolor" stroke-linecap="round" stroke-linejoin="round" stroke-width="1.5" d="M16 4.25a2.25 2.25 0 0 1-2.25 2.25h-3.5A2.24 2.24 0 0 1 8 4.25 2.25 2.25 0 0 1 10.25 2h3.5A2.24 2.24 0 0 1 16 4.25M8 13h4m-4 4h8"/>
</svg>

<svg width="20" height="20" viewBox="0 0 24 24" fill="none" xmlns="http://www.w3.org/2000/svg">
<path d="M20 8.25V18C20 21 18.21 22 16 22H8C5.79 22 4 21 4 18V8.25C4 5 5.79 4.25 8 4.25C8 4.87 8.24997 5.43 8.65997 5.84C9.06997 6.25 9.63 6.5 10.25 6.5H13.75C14.99 6.5 16 5.49 16 4.25C18.21 4.25 20 5 20 8.25Z" stroke="currentColor" stroke-width="1.5" stroke-linecap="round" stroke-linejoin="round"/>
<path d="M16 4.25C16 5.49 14.99 6.5 13.75 6.5H10.25C9.63 6.5 9.06997 6.25 8.65997 5.84C8.24997 5.43 8 4.87 8 4.25C8 3.01 9.01 2 10.25 2H13.75C14.37 2 14.93 2.25 15.34 2.66C15.75 3.07 16 3.63 16 4.25Z" stroke="currentColor" stroke-width="1.5" stroke-linecap="round" stroke-linejoin="round"/>
<path d="M8 13H12" stroke="currentColor" stroke-width="1.5" stroke-linecap="round" stroke-linejoin="round"/>
<path d="M8 17H16" stroke="currentColor" stroke-width="1.5" stroke-linecap="round" stroke-linejoin="round"/>
</svg>
